X: 26388
T: Merry Days Of Easter, The
R: reel
M: 4/4
K: Gmajor
BGEG DEGA|Bdgd cA A2|BGEG DEGA|Bdgd BGGA|
B2 BG c2 cA|Bdgd cA A2|BGEG DEGA|Bdgd Bdga||
bgaf g2 fg|eaag a2 ga|bgaf gfed|egfa g2 ga|
bgaf g2 fg|eaag eaab|c'abg agef|g2 gf gedc||

